X:1
T:Dopo che tu
T:Dopo che tu
T:Enrico Radesca di Foggia
T:Source : Canzonette a 2 voci---Libro III---Milano (?)---Heredes S.Tini & F.Lomazzi (?)---1616. Editor : André Vierendeels (08/04/14).
C:Enrico Radesca di Foggio
%%score [ 1 2 ] 3
L:1/8
Q:1/4=94
M:6/4
K:F
V:1 treble nm="Soprano" snm="S"
V:2 bass nm="Bass" snm="B"
V:3 bass nm="MusicXML Part"
V:1
 d2 B2 c2 d6 | f2 _e2 c2 d4 d2 | c2 B2 A2 G4 G2 | A2 A2 A2 G6 :: ^F2 G2 G2 A6 | f2 e2 e2 d4 d2 | %6
w: Do- po che tu,|mi vuoi tra- di- re,|per te lan- gui- re,|non vo- glio piu,|poi che la fè|e'i giu- ra- men- ti,|
w: Se'n- sco- glio da,|piu d'u- na vol- ta,|na- ve tal- vol- ta,|in pez- zi va.|Deh dim- mi di,|O bell' in- gra- ta,|
w: il tut- to so,|fe- li- ce'in- gan- no,|che'l- de- si- gnan- no,|m'a fat- to pro.|Ma guar- da, vè,|ch'il nuo- vo'A- man- te,|
w: Tem- po ver- ra,|che dell' er- ro- re,|il fal- so co- re,|si pen- ti- ra.|Ne pen- si mo,|ch'a te Si- gno- ra,|
 D2 E2 ^F2 G4 G2 | A2 A2 A2 G6 :| %8
w: son gia mai spen- ti,|fug- go da te.|
w: chi con- si- glia- ra,|ti ha con si?|
w: gia mai con- stan- te,|sa- ra qual me.|
w: io torn' an- co- ra,|no no no no!|
V:2
 B,2 G,2 A,2 B,6 | B,2 _E,2 F,2 B,,4 B,,2 | F,2 G,2 F,2 _E,4 E,2 | C,2 D,2 D,2 G,,6 :: %4
w: Do- po che tu,|mai vuoi tra- di- re,|per te lan- gui- re,|non vo- glio piu,|
w: Se'n sco- lio da,|piu d'u- na vol- ta,|na- ve tal- vol- ta,|in pez- zi va.|
w: tut- to so, fe-|li- ce'in- gan- no, che'l|de- si- gnan- no, m'a|fat- to pro. Ma|
w: Tem- po ver- ra,|che dell' er- ro- re,|il fal- so co- re,|si pen- ti- ra.|
 D,2 _E,2 E,2 D,6 | D,2 A,2 A,2 D,4 D,2 | B,,2 C,2 D,2 _E,4 E,2 | C,2 D,2 D,2 G,,6 :| %8
w: poi che la fè|e'i giu- ra- men- ti,|son gia mai spen- ti,|fug- go da te.|
w: Deh dim- mi di,|O bell' in- gra- ta,|chi con- si- glia- ra,|ti ha con si?|
w: guar- da vè, ch'il|nuo- vo'A- man- te, gia|mai con- stan- te, sa-|ra qual me. *|
w: Ne pen- si mo,|ch'a te Si- gno- ra,|io torn' an- co- ra,|no no no no!|
V:3
 B,2 G,2 A,2 B,6 | B,2 _E,2 F,2 B,,6 | F,2 G,2 F,2 _E,6 | C,2 D,4 G,,6 :: D,2 _E,4 D,6 | %5
 D,2 A,4 D,6 | B,,2 C,2 D,2 _E,6 | C,2 D,4 G,,6 :| %8

